src/24/actions/object-order-front.svg

<svg xmlns="http://www.w3.org/2000/svg" viewBox="0 0 24 24">
  <defs id="defs3051">
    <style type="text/css" id="current-color-scheme">
      .ColorScheme-Text {
        color:#5d656b;
      }
      </style>
  </defs>
 <path style="fill:currentColor;fill-opacity:1;stroke:none" 
     d="M 4 4 L 4 5 L 20 5 L 20 4 L 4 4 z M 7.5 6 L 7.28125 6.2148438 L 4 9.4453125 L 4.71875 10.154297 L 7 7.9082031 L 7 16.060547 L 7 20 L 8 20 L 8 16.060547 L 8 7.9082031 L 10.28125 10.154297 L 11 9.4453125 L 7.71875 6.2148438 L 7.5 6 z M 12 6 L 12 7 L 20 7 L 20 6 L 12 6 z M 13 8 L 13 9 L 20 9 L 20 8 L 13 8 z M 16 10 L 16 11 L 20 11 L 20 10 L 16 10 z M 11 12 L 11 13 L 20 13 L 20 12 L 11 12 z M 13 14 L 13 15 L 20 15 L 20 14 L 13 14 z M 17 16 L 17 17 L 20 17 L 20 16 L 17 16 z M 11 18 L 11 19 L 20 19 L 20 18 L 11 18 z "
     class="ColorScheme-Text"
     />
</svg>

<svg xmlns="http://www.w3.org/2000/svg" viewBox="0 0 24 24"><path d="M4 4v1h16V4H4zm3.5 2l-.219.215L4 9.445l.719.71L7 7.907V20h1V7.908l2.281 2.246.719-.709-3.281-3.23L7.5 6zM12 6v1h8V6h-8zm1 2v1h7V8h-7zm3 2v1h4v-1h-4zm-5 2v1h9v-1h-9zm2 2v1h7v-1h-7zm4 2v1h3v-1h-3zm-6 2v1h9v-1h-9z" fill="currentColor" color="#5d656b"/></svg>
